symbolic/64x64/apps/downloader-arrow.svg

<svg xmlns="http://www.w3.org/2000/svg" width="64" height="64" version="1">
 <path style="opacity:0.2;fill-rule:evenodd" d="M 6.1484172,35.000016 C 5.919536,34.99939 1.5724446,34.998656 5.933341,39.020196 L 29.121942,59.820748 C 29.98306,60.593232 30.87138,60.985302 32,61 c 1.12862,-0.0146 2.01694,-0.406768 2.878058,-1.179252 l 23.1886,-20.800552 c 4.360898,-4.02154 0.0138,-4.020806 -0.215076,-4.02018 l -25.851582,0 -25.8515828,0 z"/>
 <path style="fill:#58992d" d="M 16.769231,4 C 15.618615,4 14,5.2410434 14,6.7826086 L 14,36 32,36 50,36 50,6.7826086 C 50,5.2410434 48.381384,4 47.23077,4 Z"/>
 <path style="fill:#81d547;fill-rule:evenodd" d="M 6.1484172,34.000016 C 5.919536,33.99939 1.5724446,33.998656 5.933341,38.020196 L 29.121942,58.820748 C 29.98306,59.593232 30.87138,59.985302 32,60 c 1.12862,-0.0146 2.01694,-0.406768 2.878058,-1.179252 l 23.1886,-20.800552 c 4.360898,-4.02154 0.0138,-4.020806 -0.215076,-4.02018 l -25.851582,0 -25.8515828,0 z"/>
 <path style="opacity:0.1;fill:#ffffff" d="M 16.769531 4 C 15.618916 4 14 5.2396848 14 6.78125 L 14 7.78125 C 14 6.2396848 15.618916 5 16.769531 5 L 47.230469 5 C 48.381083 5 50 6.2396848 50 7.78125 L 50 6.78125 C 50 5.2396848 48.381083 4 47.230469 4 L 16.769531 4 z"/>
 <path style="opacity:0.2;fill:#ffffff;fill-rule:evenodd" d="M 6.1484375 34 C 5.9750862 33.999526 3.4466392 34.003028 4.1210938 35.75 C 4.5497957 35.002186 6.0177814 34.999643 6.1484375 35 L 32 35 L 57.851562 35 C 57.982216 34.999643 59.450203 35.002186 59.878906 35.75 C 60.55336 34.003028 58.02491 33.999526 57.851562 34 L 32 34 L 6.1484375 34 z"/>
</svg>

<svg xmlns="http://www.w3.org/2000/svg" width="64" height="64" version="1"><path style="opacity:.2;fill-rule:evenodd" d="M6.148 35c-.228 0-4.576-.001-.215 4.02l23.189 20.8c.861.773 1.75 1.165 2.878 1.18 1.129-.015 2.017-.407 2.878-1.18l23.189-20.8C62.427 35 58.08 35 57.852 35H6.148z"/><path style="fill:#58992d" d="M16.77 4C15.618 4 14 5.241 14 6.783V36h36V6.783C50 5.24 48.381 4 47.23 4z"/><path style="fill:#81d547;fill-rule:evenodd" d="M6.148 34c-.228 0-4.576-.001-.215 4.02l23.189 20.8c.861.773 1.75 1.165 2.878 1.18 1.129-.015 2.017-.407 2.878-1.18l23.189-20.8C62.427 34 58.08 34 57.852 34H6.148z"/><path style="opacity:.1;fill:#fff" d="M16.77 4C15.619 4 14 5.24 14 6.781v1C14 6.24 15.619 5 16.77 5h30.46C48.381 5 50 6.24 50 7.781v-1C50 5.24 48.381 4 47.23 4H16.77z"/><path style="opacity:.2;fill:#fff;fill-rule:evenodd" d="M6.148 34c-.173 0-2.701.003-2.027 1.75.429-.748 1.897-.75 2.027-.75h51.704c.13 0 1.598.002 2.027.75.674-1.747-1.854-1.75-2.027-1.75H6.148z"/></svg>
